Papirus/22x22/panel/seafile-status-error.svg

<?xml version="1.0" encoding="UTF-8" standalone="no"?>
<svg xmlns:dc="http://purl.org/dc/elements/1.1/" xmlns:cc="http://creativecommons.org/ns#" xmlns:rdf="http://www.w3.org/1999/02/22-rdf-syntax-ns#" xmlns:svg="http://www.w3.org/2000/svg" xmlns="http://www.w3.org/2000/svg" id="svg2" viewBox="0 0 22 22" version="1.1" width="22" height="22">
    <metadata id="metadata14">
        <rdf:RDF>
            <cc:Work rdf:about="">
                <dc:format>
                    image/svg+xml
                </dc:format>
                <dc:type rdf:resource="http://purl.org/dc/dcmitype/StillImage"/>
                <dc:title/>
            </cc:Work>
        </rdf:RDF>
    </metadata>
    <path id="path6" d="M 8 4 L 8 4.0175781 A 3 2.9965424 0 0 0 5 7.0136719 L 5 7.2851562 A 2 1.997695 0 0 0 4 7.0136719 A 2 1.997695 0 0 0 2 9.0117188 L 1.5 9.0117188 A 0.5 0.49942374 0 0 0 1 9.5117188 A 0.5 0.49942374 0 0 0 1.5 10.009766 L 2.2714844 10.009766 L 4.5605469 10.009766 C 5.2568569 8.8236339 6.5333 8.0117188 8 8.0117188 L 8.0019531 8.0117188 C 8.5350831 8.0125178 9.0518563 8.1298646 9.5351562 8.3320312 C 9.8638162 7.5869909 10.343454 6.9277714 10.933594 6.3964844 A 3 2.9965424 0 0 0 8 4 z M 14.5 6.0117188 L 14.5 6.015625 C 12.2792 6.015625 10.393094 7.6390616 10.058594 9.8320312 C 9.5025337 9.3057386 8.766 9.0129173 8 9.0117188 C 6.3431 9.0117188 5 10.352821 5 12.007812 C 5.00109 12.351017 5.0612104 12.690745 5.1777344 13.013672 C 5.1186344 13.003672 5.05933 13.003906 5 13.003906 C 3.8954 13.003906 3 13.898626 3 15.001953 C 3 16.10528 3.89543 17 5 17 L 6.0449219 17 C 6.4161019 16.897518 6.6938788 16.796167 7.0117188 16.521484 C 7.3514788 16.227723 10.509372 11.023437 13.388672 11.023438 C 14.915472 11.024036 16.396062 11.770877 16.914062 13.820312 C 16.959833 14.012391 17.02186 14.383989 17 14.501953 C 17 15.329398 16.32843 16.001953 15.5 16.001953 C 14.67157 16.001953 14 15.329398 14 14.501953 C 13.999916 13.682798 14.658506 13.015592 15.478516 13.003906 C 15.010086 12.706549 14.438906 12.532993 14.003906 12.529297 C 12.822906 12.519297 12.086922 13.54992 11.982422 14.472656 C 11.879022 15.385902 12.177987 16.447837 13.992188 17 L 18.5 17 C 19.8807 17 21 15.881062 21 14.501953 C 20.99954 13.21314 20.017182 12.137439 18.732422 12.017578 C 18.907542 11.533348 18.99806 11.022718 19 10.507812 C 19 8.0253768 16.9853 6.0117188 14.5 6.0117188 z " style="fill:#5294e2;opacity:1;fill-opacity:1"/>
</svg>

<?xml version="1.0" encoding="UTF-8" standalone="no"?>
<svg id="svg2" xmlns:rdf="http://www.w3.org/1999/02/22-rdf-syntax-ns#" xmlns="http://www.w3.org/2000/svg" viewBox="0 0 22 22" width="22" version="1.1" xmlns:cc="http://creativecommons.org/ns#" height="22" xmlns:dc="http://purl.org/dc/elements/1.1/">
 <metadata id="metadata14">
  <rdf:RDF>
   <cc:Work rdf:about="">
    <dc:format>image/svg+xml</dc:format>
    <dc:type rdf:resource="http://purl.org/dc/dcmitype/StillImage"/>
    <dc:title/>
   </cc:Work>
  </rdf:RDF>
 </metadata>
 <path id="path6" d="m8 4v0.0176a3 2.9965 0 0 0 -3 2.9961v0.2715a2 1.9977 0 0 0 -1 -0.2715 2 1.9977 0 0 0 -2 1.998h-0.5a0.5 0.49942 0 0 0 -0.5 0.5 0.5 0.49942 0 0 0 0.5 0.4983h0.7715 2.289c0.6964-1.1864 1.9728-1.9983 3.4395-1.9983h0.002c0.5331 0.0008 1.0499 0.1182 1.5332 0.3203 0.3286-0.745 0.8078-1.4042 1.3988-1.9355a3 2.9965 0 0 0 -2.934 -2.3965zm6.5 2.0117v0.0039c-2.221 0-4.107 1.6235-4.441 3.8164-0.5565-0.5263-1.293-0.8191-2.059-0.8203-1.6569 0-3 1.3413-3 2.9963 0.0011 0.343 0.0612 0.683 0.1777 1.006-0.0591-0.01-0.1184-0.01-0.1777-0.01-1.1046 0-2 0.895-2 1.998s0.8954 1.998 2 1.998h1.0449c0.3712-0.102 0.649-0.204 0.9668-0.479 0.3398-0.293 3.4973-5.498 6.3773-5.498 1.526 0.001 3.007 0.748 3.525 2.797 0.046 0.192 0.108 0.564 0.086 0.682 0 0.827-0.672 1.5-1.5 1.5s-1.5-0.673-1.5-1.5c0-0.819 0.659-1.486 1.479-1.498-0.469-0.297-1.04-0.471-1.475-0.475-1.181-0.01-1.917 1.021-2.022 1.944-0.103 0.913 0.196 1.975 2.01 2.527h4.508c1.381 0 2.5-1.119 2.5-2.498 0-1.289-0.983-2.365-2.268-2.484 0.176-0.485 0.266-0.995 0.268-1.51 0-2.4826-2.015-4.4963-4.5-4.4963z" fill="#5294e2"/>
</svg>
